!!!Genre:	Skotshne
!!!Mode:	Minor
!!!Listening/dance:	dance
!!!One_Mode:	yes
**kern
*I"P1
*clefG2
*k[b-e-]
*g:
*M2/4
*>A
16dLL
16g
16b-JJ
=1
4.dd
(32ccLLL
32dd
32cc
32b-JJJ
=2
4.dd)
(32ccLLL
32dd
32cc
32b-JJJ
=3
8dd'L)
(32ccLL
32dd
32cc
32b-JJJ
8dd'L)
(32ccLL
32dd
32cc
32b-JJJ
=4
4.dd)
8r
=5
(16qqg/LL
16qqa/JJ
16gLL)
16d
16g
16b-JJ
8ffL
(16qqcc/LL
16qqdd/JJ
16ccL)
16b-JJ
=6
4.cc
(16qqb-/LL
16qqcc/JJ
16b-LL)
16aJJ
=7
16b-LL
16a
16b-
16aJJ
16b-LL
16cc
(16qqb-/LL
16qqcc/JJ
16b-)
16aJJ
*>A1
=8
4g
16r
*>A2
=9:|!
4g
4r
=10||
*>B
(16qqg/LL
16qqa/JJ
16gLL)
16d
16g
16b-JJ
(8qb-/
8ddL)
8ddJ
=11
(16ee-LL
16dd
16ee-
16ccJJ
8.ddL)
(16gJk
=12
8ee-L)
[8ee-J
16ee-LL]
16dd
16ff
16ee-JJ
=13
2dd
=14||
(16qa/
16gLL)
16d
16g
16b-JJ
8ddL
8ddJ)
=15
(8qff/
(16ee-LL)
16dd
16ee-
16ccJJ
8.ddL)
(16gJk
=16
8ee-L)
[8ee-J
16ee-LL]
16dd
16ff
16ee-JJ
=17
4.dd
16ffLL
16ggJJ
=18
(8aa-XL
8ggJ
8ffL
16ffL
16ee-JJ)
=19
(8ffL
16ee-L
16ddJJ
4cc)
=20
(8ffL
8ee-J
8ddL
16ddL
16ccJJ)
=21
8ddL
16ddL
16ccJJ
4b-
=22
16b-LL
16cc
16dd
16b-JJ
8ccTL
16b-L
16aJJ
=23
8g'L
8b-'
8dd'
8gg'J
=24
16b-LL
16cc
16dd
16b-JJ
8ccL
16b-L
16aJJ
=25
8g
8qff#X/
8ggJ
8qff#/
4gg
=26
16b-LL
16cc
16dd
16b-JJ
8ccTL
16b-L
16aJJ
=27
8gL
8b-
8dd
8ggJ
=28
16b-LL
16cc
16dd
16b-JJ
8ccTL
16b-L
16aJJ
=29
4g
16r
==
*-
